img/phone-call.svg

<svg width="20" height="20" viewBox="0 0 20 20" fill="none" xmlns="http://www.w3.org/2000/svg">
<path d="M17.1667 9.54079H19.0834C19.0834 4.62454 15.3717 0.916748 10.4488 0.916748V2.83341C14.3415 2.83341 17.1667 5.65379 17.1667 9.54079Z" fill="#BDBDBD"/>
<path d="M10.4584 6.66672C12.4737 6.66672 13.3334 7.52635 13.3334 9.54172H15.25C15.25 6.4511 13.549 4.75005 10.4584 4.75005V6.66672ZM13.7378 11.8829C13.5536 11.7156 13.3116 11.6263 13.0629 11.634C12.8142 11.6417 12.5782 11.7457 12.4047 11.9241L10.1114 14.2826C9.55944 14.1772 8.44969 13.8312 7.30736 12.6918C6.16503 11.5485 5.81907 10.4358 5.71653 9.88768L8.07307 7.59343C8.25171 7.42009 8.35591 7.18405 8.3636 6.93525C8.37129 6.68645 8.28187 6.44443 8.11428 6.26039L4.57323 2.36668C4.40557 2.18206 4.17254 2.07008 3.92363 2.05451C3.67473 2.03894 3.42956 2.12102 3.24019 2.2833L1.16061 4.06676C0.994924 4.23305 0.896032 4.45436 0.882693 4.68872C0.868318 4.9283 0.594234 10.6036 4.9949 15.0061C8.83398 18.8443 13.6429 19.1251 14.9673 19.1251C15.1609 19.1251 15.2797 19.1193 15.3114 19.1174C15.5457 19.1043 15.7669 19.0049 15.9324 18.8385L17.7149 16.758C17.8773 16.5687 17.9595 16.3236 17.9441 16.0747C17.9287 15.8258 17.8169 15.5927 17.6324 15.4249L13.7378 11.8829Z" fill="#BDBDBD"/>
</svg>

<svg xmlns="http://www.w3.org/2000/svg" width="20" height="20" fill="#bdbdbd"><path d="M17.167 9.541h1.917c0-4.916-3.712-8.624-8.635-8.624v1.917c3.893 0 6.718 2.82 6.718 6.707zm-6.709-2.874c2.015 0 2.875.86 2.875 2.875h1.917c0-3.091-1.701-4.792-4.792-4.792v1.917zm3.279 5.216a.96.96 0 0 0-1.333.041l-2.293 2.359c-.552-.105-1.662-.451-2.804-1.591s-1.488-2.256-1.591-2.804l2.357-2.294a.96.96 0 0 0 .041-1.333L4.573 2.367a.96.96 0 0 0-1.333-.083L1.16 4.067a.96.96 0 0 0-.278.622c-.014.24-.288 5.915 4.112 10.317 3.839 3.838 8.648 4.119 9.972 4.119.194 0 .312-.006.344-.008a.95.95 0 0 0 .621-.279l1.783-2.081a.96.96 0 0 0-.082-1.333l-3.895-3.542z"/></svg>
